X: 30
T:Short & Pretty(). JaW.030
M:C|
L:1/8
Q:1/4=180
C:"..A Reel"
S:James Winder Ms, Lancashire, 1835-41
R:Reel
O:England
A:Wyresdale,Lancashire
N:Title not clear in MS..
H:1/8
Z:vmp.Chris Partington, Aug 2004
K:G
BG-GB cA-Ac|BG-GB c2A2|BG-GB cA-Ac|BGAF G4:|!
|:gb-bg fa-af|eg-ge f2d2|ce-ec Bd-dB|cAGF G4:|]
